X: 16697
T: Happy Farmer, The
R: jig
M: 6/8
K: Gmajor
D|:G2A BAG|d2 d d2 g|f2 e d2 c|B2 A G2 D|
G2 A BAG|d2 d d2 g|fed ed^c|1 d3 d2 D:|2 d3d2 d||
|:dB=c ded|dcB c3|cAB cdc|cBA B2 d|
g2 d g2 d|gfe d2 c|BAG A2F|1 G3 c2 d:|2 G3 G3||

